X:27
T: As Maadla von Gmaa hot schoena weissa Baa
N: V0006A
O: Europa, Mitteleuropa, Deutschland, Ober - Franken, Breitenlesau
R: Liebes - Lied
M: 2/4
L: 1/16
K: E
B2 | c2B2^A2B2 | G4z2
B2 | c2B2^A2B2 | A4z2
B2 | c2B2^A2B2 | d3dd2d2 | c2c2c4 | B4z2
B2 | c2B2^A2B2 | G4z2
B2 | c2B2^A2B2 | A4z2
B2 | c2B2^A2B2 | d3dd2d2 | B2A2G2F2 | E4z2

@@@ Tune index: 9756
